X: 19541
T: James Bryan's
R: reel
M: 4/4
K: Gmajor
B/A/|G<EE>G D>ED<B,|G,<G,c>B A2 AB/A/|
[1 G<EE>G D>ED<B,|C<ED>F G2 G:|2 d>A B>F G>DE>B,|C>ED>F G2 G||
d/e/|d<BB<g d>d e/d/c/B/|d<BB<g e2 e>g|d<BB<g d>d e/d/c/B/|
c>AB>G E2 EB/c/|d<BB<g d>d e/d/c/B/|d>eg>f e2 e>f|
(3gfe (3def (3gdc (3BAG|(3cBA (3BAG (3Eed (3cBA||

